public/UsaFlag.svg

<svg width="42" height="42" viewBox="0 0 42 42" fill="none" xmlns="http://www.w3.org/2000/svg">
<g clip-path="url(#clip0_9_109931)">
<path d="M21 42C32.598 42 42 32.598 42 21C42 9.40202 32.598 0 21 0C9.40202 0 0 9.40202 0 21C0 32.598 9.40202 42 21 42Z" fill="#F0F0F0"/>
<path d="M20.0938 21.0017H42.0068C42.0068 19.1063 41.7541 17.2701 41.2833 15.5234H20.0938V21.0017Z" fill="#D80027"/>
<path d="M20.0938 10.0447H38.9245C37.639 7.947 35.9953 6.09284 34.0789 4.56641H20.0938V10.0447Z" fill="#D80027"/>
<path d="M21.0019 42.0027C25.9442 42.0027 30.4868 40.2945 34.074 37.4375H7.92969C11.5169 40.2945 16.0596 42.0027 21.0019 42.0027Z" fill="#D80027"/>
<path d="M3.08537 31.9588H38.9209C39.9529 30.2747 40.7533 28.434 41.2797 26.4805H0.726562C1.25296 28.434 2.05334 30.2747 3.08537 31.9588Z" fill="#D80027"/>
<path d="M9.72759 3.27945H11.6413L9.86122 4.57267L10.5412 6.6652L8.76118 5.37198L6.98119 6.6652L7.56853 4.85748C6.00124 6.16301 4.62755 7.69256 3.49552 9.39684H4.1087L2.9756 10.22C2.79907 10.5145 2.62976 10.8137 2.4675 11.1173L3.00858 12.7826L1.9991 12.0492C1.74817 12.5808 1.51864 13.1244 1.31234 13.6794L1.90846 15.5142H4.1087L2.32862 16.8075L3.00858 18.9L1.22858 17.6068L0.16234 18.3815C0.0556172 19.2394 0 20.1132 0 21H21C21 9.40209 21 8.0348 21 0C16.8515 0 12.9843 1.2034 9.72759 3.27945ZM10.5412 18.9L8.76118 17.6068L6.98119 18.9L7.66114 16.8075L5.88107 15.5142H8.08131L8.76118 13.4217L9.44106 15.5142H11.6413L9.86122 16.8075L10.5412 18.9ZM9.86122 10.6901L10.5412 12.7826L8.76118 11.4894L6.98119 12.7826L7.66114 10.6901L5.88107 9.39684H8.08131L8.76118 7.30431L9.44106 9.39684H11.6413L9.86122 10.6901ZM18.0738 18.9L16.2938 17.6068L14.5138 18.9L15.1937 16.8075L13.4137 15.5142H15.6139L16.2938 13.4217L16.9737 15.5142H19.1739L17.3938 16.8075L18.0738 18.9ZM17.3938 10.6901L18.0738 12.7826L16.2938 11.4894L14.5138 12.7826L15.1937 10.6901L13.4137 9.39684H15.6139L16.2938 7.30431L16.9737 9.39684H19.1739L17.3938 10.6901ZM17.3938 4.57267L18.0738 6.6652L16.2938 5.37198L14.5138 6.6652L15.1937 4.57267L13.4137 3.27945H15.6139L16.2938 1.18691L16.9737 3.27945H19.1739L17.3938 4.57267Z" fill="#0052B4"/>
</g>
<defs>
<clipPath id="clip0_9_109931">
<rect width="42" height="42" fill="white"/>
</clipPath>
</defs>
</svg>

<svg xmlns="http://www.w3.org/2000/svg" width="42" height="42" fill="none" viewBox="0 0 42 42"><g clip-path="url(#a)"><path fill="#f0f0f0" d="M21 42c11.598 0 21-9.402 21-21S32.598 0 21 0 0 9.402 0 21s9.402 21 21 21"/><path fill="#d80027" d="M20.094 21.002h21.913c0-1.896-.253-3.732-.724-5.479h-21.19zM20.094 10.045h18.83a21.1 21.1 0 0 0-4.845-5.479H20.094zM21.002 42.003a20.9 20.9 0 0 0 13.072-4.565H7.93a20.9 20.9 0 0 0 13.072 4.565M3.085 31.959h35.836a20.9 20.9 0 0 0 2.359-5.478H.727a20.9 20.9 0 0 0 2.358 5.478"/><path fill="#0052b4" d="M9.728 3.28h1.913l-1.78 1.293.68 2.092-1.78-1.293-1.78 1.293.588-1.808a21.1 21.1 0 0 0-4.073 4.54h.613l-1.133.823q-.265.442-.509.897l.542 1.666-1.01-.734q-.376.798-.687 1.63l.596 1.835h2.2l-1.78 1.294.68 2.092-1.78-1.293-1.066.774A21 21 0 0 0 0 21h21V0A20.9 20.9 0 0 0 9.728 3.28m.813 15.62-1.78-1.293-1.78 1.293.68-2.092-1.78-1.294h2.2l.68-2.092.68 2.092h2.2l-1.78 1.294zm-.68-8.21.68 2.093-1.78-1.294-1.78 1.294.68-2.093-1.78-1.293h2.2l.68-2.093.68 2.093h2.2zm8.213 8.21-1.78-1.293-1.78 1.293.68-2.092-1.78-1.294h2.2l.68-2.092.68 2.092h2.2l-1.78 1.294zm-.68-8.21.68 2.093-1.78-1.294-1.78 1.294.68-2.093-1.78-1.293h2.2l.68-2.093.68 2.093h2.2zm0-6.117.68 2.092-1.78-1.293-1.78 1.293.68-2.092-1.78-1.294h2.2l.68-2.092.68 2.092h2.2z"/></g><defs><clipPath id="a"><path fill="#fff" d="M0 0h42v42H0z"/></clipPath></defs></svg>
